assets/ideal.svg

<svg viewBox="0 0 24 16" fill="none" xmlns="http://www.w3.org/2000/svg">
<path d="M0 2C0 0.895431 0.895431 0 2 0H22C23.1046 0 24 0.895431 24 2V14C24 15.1046 23.1046 16 22 16H2C0.89543 16 0 15.1046 0 14V2Z" fill="#FFCCE7"/>
<path d="M18.9233 7.98744C18.9233 11.9908 16.3292 14 12.2177 14H5.07651V2H12.2184C17.0658 2 18.9233 4.64803 18.9233 7.98744Z" fill="white"/>
<path d="M12.2183 13.3083H5.7678V2.69273H12.2183C15.9347 2.69273 18.2308 4.38219 18.2308 7.98744C18.2308 11.4939 16.1128 13.3083 12.2183 13.3083ZM12.2183 2H5.07642V14H12.2183C16.3294 14 18.9236 11.9911 18.9236 7.98744C18.9232 4.64803 17.066 2 12.2183 2Z" fill="black"/>
<path d="M8.69976 8.77013H6.63498V12.445H8.69976V8.77013Z" fill="black"/>
<path d="M7.66561 5.63226C8.37441 5.63226 8.94894 6.20679 8.94894 6.91559C8.94894 7.62439 8.37441 8.19892 7.66561 8.19892C6.95681 8.19892 6.38227 7.62439 6.38227 6.91559C6.38227 6.20679 6.95681 5.63226 7.66561 5.63226Z" fill="black"/>
<path d="M14.4481 6.37876H14.4129L14.2157 7.05307H14.6453L14.4481 6.37876ZM14.4481 6.37876H14.4129L14.2157 7.05307H14.6453L14.4481 6.37876ZM14.4129 6.37876L14.2157 7.05307H14.6453L14.4481 6.37876H14.4129ZM14.9547 8.11041L14.8204 7.6477H14.0423L13.9087 8.11041H13.2906L14.0095 5.72153H14.8566L15.5754 8.11041H14.9547ZM13.0298 8.11041H11.5583V5.72286H12.9823V6.3185H12.1529V6.59471H12.9374V7.18901H12.1529V7.51645H13.0295L13.0298 8.11041ZM15.872 8.11041V5.72286H16.4677V7.51612H17.3486C17.1065 4.26208 14.5472 3.55864 12.2199 3.55864H9.73996V5.7242H10.1082C10.7779 5.7242 11.193 6.17787 11.193 6.90743C11.193 7.66076 10.7869 8.11275 10.1082 8.11275H9.73996V12.4449H12.2199C16.0033 12.4449 17.3184 10.6885 17.366 8.11141L15.872 8.11041ZM10.1066 6.3185H9.73862V7.51612H10.1066C10.3604 7.51612 10.5957 7.44246 10.5957 6.90743C10.5957 6.38546 10.3342 6.3185 10.1066 6.3185Z" fill="#D50072"/>
</svg>

<svg xmlns="http://www.w3.org/2000/svg" width="24" height="16" viewBox="0 0 24 16">
  <path fill="#e6e6e6" d="M0 2a2 2 0 0 1 2-2h20a2 2 0 0 1 2 2v12a2 2 0 0 1-2 2H2a2 2 0 0 1-2-2V2Z" />
  <path fill="#fff" d="M18.923 7.987c0 4.004-2.594 6.013-6.705 6.013H5.077V2h7.141c4.848 0 6.705 2.648 6.705 5.987Z" />
  <path
    d="M12.218 13.308h-6.45V2.693h6.45c3.717 0 6.013 1.69 6.013 5.294 0 3.507-2.118 5.321-6.013 5.321Zm0-11.308H5.076v12h7.142c4.111 0 6.706-2.009 6.706-6.013C18.924 4.648 17.066 2 12.218 2Z" />
  <path d="M8.7 8.77H6.635v3.675H8.7V8.77ZM7.666 5.632a1.283 1.283 0 1 1 0 2.567 1.283 1.283 0 0 1 0-2.567Z" />
  <path fill="#d50072"
    d="M14.448 6.379h-.035l-.197.674h.43l-.198-.674Zm0 0h-.035l-.197.674h.43l-.198-.674Zm-.035 0-.197.674h.43l-.198-.674h-.035Zm.542 1.731-.135-.462h-.778l-.133.462h-.618l.718-2.388h.848l.718 2.388h-.62Zm-1.925 0h-1.472V5.723h1.424v.596h-.83v.276h.785v.594h-.784v.327h.877v.594Zm2.842 0V5.723h.596v1.793h.88c-.241-3.254-2.8-3.957-5.128-3.957H9.74v2.165h.368c.67 0 1.085.454 1.085 1.183 0 .754-.406 1.206-1.085 1.206H9.74v4.332h2.48c3.783 0 5.098-1.757 5.146-4.334h-1.494ZM10.107 6.32h-.368v1.197h.368c.253 0 .489-.074.489-.609 0-.522-.262-.588-.49-.588Z" />
</svg>
